X:0028
T:Rob: Down.
M:6/8
L:1/8
Q:3/8=120
I: :: ::
Z:Jack Campin * www.campin.me.uk * 2009
K:G
d|e2d B2G|dBB Bcd|efg B2G|cAA AB
d|e2d B2A|GAB gfg|agf gfe|dBB B2:|
e|dBB gBB|dBB B2e|dBB gfg|aAA AB
d|e2d B2A|GAB gfg|agf gfe|dBB B2:|

